X:3003
T:Captain O'Kane
T:Planxty O'Kane
T:The Wounded Hussar
R:Jig
C:Turlough O'Carolan (1670-1738)
O:Ireland
Z:Paul Hardy's Session Tunebook 2022 (see www.paulhardy.net). Creative Commons cc by-nc-sa licenced.
M:6/8
L:1/8
Q:3/8=60
K:G
E/D/|"Em"B,EF G2 F/E/|"D"F/G/A/G/F/E/ DEF|"Em"GBG "Bm"B/A/G/F/E/D/|"Em"B,EE E2:|
E/F/|"Em"GBB B2 A/G/|"D"FAA A2 d/c/|"Em"Be^d e>fg|Be^d e2 e/f/|
"Em"g>fe "G"d>cB|"D"AFd DEF|"Em"GBG "Bm"B/A/G/F/E/D/|"Em"B,EE E2|]

